!!!OTL: BESENBINDERS TOCHTER UND KACHELMACHERS SOHN
!!!ARE: Europa, Mitteleuropa, Deutschland,Sachsen, Halle
!!!SCT: Z0147
!!!YEM: Copyright 1995, estate of Helmut Schaffrath.
**kern
*ICvox
*Ivox
*M4/4
*k[b-]
*F:
=1
{4cc
4bn
4cc
4a
=2
2f
4f
4a
=3
4g
4f#
4g
4e
=4
2.c}
{4a
=5
4cc
4bn
4cc
4a
=6
2f
4f
4a
=7
8g
8g
4f#
4g
4e
=8
2.c}
{4c
=9
4c
4c
8c
8c
4c
=10
2b-
4b-
4a
=11
4g
4g
4a
4b-
=12
2cc
4ff}
{4a
=13
4cc
4bn
4cc
4a
=14
4f
4e
4f
8a
8a
=15
4g
4f#
4g
4a
=16
2f
2r}
=17
{4c
4c
4c
4c
=18
8b-
8b-
4b-
4b-
4a
=19
4g
4g
4a
4b-
=20
2cc
4ff}
{4a
=21
4cc
4bn
4cc
4a
=22
4f
4f
4f
4a
=23
4g
4f#
4g
4a
=24
2.f}
{4a
=25
4cc
4bn
4cc
4a
=26
4f
4f
4f
4a
=27
4g
4f#
4g
4a
=28
2f
4f}
{4a
=29
4cc
4bn
4cc
4a
=30
4f
4e
4f
4a
=31
4g
4f#
4g
4a
=32
2f
4f
4r}
=33
{4c
4c
4c
4c
=34
8b-
8b-
4b-
4b-
4a
=35
4g
4g
4a
4b-
=36
2cc
4ff}
{4a
=37
4cc
4bn
4cc
4a
=38
4f
4f
4f
4a
=39
4g
4f#
4g
4a
=40
1f}
==
!!!AGN: Erzaehlung, lustige Romanze, Hochzeit
!!!ONB: ESAC (Essen Associative Code) Database: ZUCCAL
!!!AMT: simple quadruple
!!!AIN: vox
!!!EED: Helmut Schaffrath
!!!EEV: 1.0
*-
